X:1
T:Title
%%score { ( 1 3 ) | ( 2 4 ) }
L:1/8
M:4/4
K:Db
V:1 treble nm="Grand Piano"
V:3 treble 
V:2 bass 
V:4 bass 
V:1
 z4 z2 z[Q:1/4=100] [A,DF] | [A,DF]2 [A,DF]2 [A,DF]2 [B,DG][B,DG] | [A,DF]2[K:bass] [G,CE]2 D2 z2 | %3
 .A2 z2 .G2 z2 |[M:5/8] F- F3 z |[M:3/8] FED |[M:4/4] A6 z2 | A6 z2 | d6 z2 | A6 z2 | A6 z2 | %11
 A6 z2 | e6 z2 |[M:5/8] d-d- d3 |[M:3/8] A=GA |[M:4/4] d2 A2 F2 A,2 | %16
[M:7/8] D-D-D- D- D3[Q:1/4=97][Q:1/4=94][Q:1/4=91][Q:1/4=88][Q:1/4=84][Q:1/4=81][Q:1/4=78] |] %17
V:2
 z4 z2 z D, | D,2 D,2 B,,2 G,,G,, | A,,2 A,,2 .[D,F,]2 z2 | .[F,A,D]2 z2 .[E,A,C]2 z2 | %4
[M:5/8] [D,A,D]- [D,A,D]3 z |[M:3/8] z3 |[M:4/4] z [D,A,][D,G,][D,F,] .[D,A,]2 z2 | %7
 z [D,A,][D,G,][D,F,] .[D,A,]2 z2 | z [D,A,][G,B,][G,C] .[G,D]2 z2 | z [A,D][A,C][A,B,] .A,2 z2 | %10
 z [D,A,][D,G,][D,F,] .[D,A,]2 z2 | z [D,A,][D,G,][D,F,] .[D,A,]2 z2 | z A,[A,C][A,D] .[A,E]2 z2 | %13
[M:5/8] z [D,D][D,C] [D,B,][D,A,] |[M:3/8] A,=G,A, |[M:4/4] D2 A,2 F,2 [A,,G,]2 | %16
[M:7/8] [F,A,] z z z z z2 |] %17
V:3
 x8 | x8 | x2[K:bass] x6 | x8 |[M:5/8] x5 |[M:3/8] x3 |[M:4/4] z FED FFED | z FED FABc | %8
 z FGA BdcB | z FED CFED | z FED FFED | z FED FAcd | z EAB cABc |[M:5/8] z FA GF |[M:3/8] x3 | %15
[M:4/4] x8 |[M:7/8] z A,B, B, A,3 |] %17
V:4
 x8 | x8 | x8 | x8 |[M:5/8] x5 |[M:3/8] x3 |[M:4/4] x8 | x8 | x8 | x8 | x8 | x8 | x8 |[M:5/8] x5 | %14
[M:3/8] x3 |[M:4/4] x8 |[M:7/8] D,-[D,-F,][D,-G,] [D,-G,] [D,F,]3 |] %17

